X: 72
T:John Stenson's Reel No. 2
M:C|
L:1/8
R:Reel
K:A
ABcA B2cB|ABcB BAFB|ABcA B2cf|e2cB BAFB|!
ABcA B2cB|ABcB BAFA|d2dc dfed|1cdBc A2cB:|2cdBc A3f|!
|:e2cd edcd|e2cB BAFA|e2cd edcA|BcBA BAFf|!
e2cd edcd|e2cB BAFA|d2dc dfed|1cdBc A3f:|2cdBc A2cB|]!
